X:1
T:Werde Munter, 87.87.77.88
T:Werde Munter, 87.87.77.88
T:Johann Schop, 1642
T:Public Domain Courtesy of the Cyber Hymnal™
C:Johann Schop, 1642
Z:Public Domain
Z:Courtesy of the Cyber Hymnal™
%%score ( 1 2 ) 3
L:1/8
Q:1/4=110
M:4/4
K:F
V:1 treble 
V:2 treble 
V:3 bass 
V:1
|: [FA]2 [FB]2 [Ec]2 [Fc]2 | [FB]2 [FA]2 [FG]2 !fermata![EG]2 | [FA]2 [FB]2 [Gc]2 [FA]2 | %3
 [FG]2 [EG]2 F4 :| [EG]2 [^FA]2 [GB]2 [Gc]2 | [GB]2 [^FA]2 G4 | [DB]2 [Fc]2 [Fd]2 [Gd]2 | %7
 [Gc]2 [Fc]2 [DB]4 | [FA]2 [FB]2 [Ec]2 [Fc]2 | [FB]2 [FA]2 [FG]2 !fermata![EG]2 | %10
 [FA]2 [FB]2 [Fc]2 [FA]2 | [FG]2 [EG]2 [CF]2 [CF]2 |] %12
V:2
|: x8 | x8 | x8 | x4 F4 :| x8 | x4 G4 | x8 | x8 | x8 | x8 | x8 | x8 |] %12
V:3
|: [F,C]2 [D,F,]2 [C,G,]2 [A,,C]2 | [B,,D]2 [F,C]2 [C,C]2 !fermata![C,C]2 | %2
 [F,C]2 [D,D]2 [E,C]2 [F,C]2 | [B,,D]2 [C,C]2 [F,A,]4 :| [C,C]2 [A,,C]2 [G,,D]2 [_E,G,]2 | %5
 [D,D]2 [D,D]2 [G,B,]4 | [G,B,]2 [F,A,]2 [B,,B,]2 [G,B,]2 | [_E,B,]2 [F,A,]2 [B,,B,]4 | %8
 [F,C]2 [D,F,]2 [C,G,]2 [A,,C]2 | [B,,D]2 [F,C]2 [C,C]2 !fermata![C,C]2 | %10
 [F,C]2 [D,D]2 [A,,C]2 [F,,C]2 | [B,,D]2 [C,C]2 [F,B,]2 [F,,F,A,]2 |] %12

